X: 839
T: The Idle Road
N:"Collected by Cronin"
B:O'Neill's 839
Z:Transcribed by Dan G. Petersen, dangp@post6.tele.dk
M:6/8
L:1/8
K:G
D|D>BB D>cc|D>BB c2e|dBG AFD|BAG AFD|
D>BB D>cc|D>BB c2e|dBG FGA|BGG G2:|
G|G>gg efg|fed cAF|G>gg gfg|afd cAF|
D>BB D>cc|D>BB c2e|dBG FGA|BGG G2:|


